portal/src/assets/icon-warning-error.svg

<svg height="18" viewBox="0 0 18 18" width="18" xmlns="http://www.w3.org/2000/svg"><g fill="none" fill-rule="evenodd"><circle cx="9" cy="9" fill="#c42c44" r="9"/><path d="m9.87428571 11.3554286h-1.85142857v-7.49828574h1.85142857zm-2.16 2.3451428c0-.3291445.12085594-.6119988.36257143-.8485714.2417155-.2365726.53228402-.3548571.87171429-.3548571.3291445 0 .61714162.1131417.864.3394285.24685837.2262869.37028567.5039984.37028567.8331429s-.1208559.6119988-.36257139.8485714-.53228401.3548572-.87171428.3548572c-.16457225 0-.32142783-.0308569-.47057143-.0925715s-.28028515-.1439995-.39342857-.2468571c-.11314342-.1028577-.20314252-.226285-.27-.3702857s-.10028572-.2982849-.10028572-.4628572z" fill="#fff" fill-rule="nonzero"/></g></svg>

<?xml version="1.0" encoding="UTF-8"?>
<svg width="18px" height="18px" viewBox="0 0 18 18" version="1.1" xmlns="http://www.w3.org/2000/svg" xmlns:xlink="http://www.w3.org/1999/xlink">
    <!-- Generator: Sketch 59 (86127) - https://sketch.com -->
    <title>Icon_Warning_error</title>
    <desc>Created with Sketch.</desc>
    <g id="Page-1" stroke="none" stroke-width="1" fill="none" fill-rule="evenodd">
        <g id="33_Mobile_onboarding" transform="translate(-39.000000, -200.000000)">
            <g id="Icon_Warning_error" transform="translate(39.000000, 200.000000)">
                <circle id="Oval" fill="#C42C44" cx="9" cy="9" r="9"></circle>
                <path d="M9.87428571,11.3554286 L8.02285714,11.3554286 L8.02285714,3.85714286 L9.87428571,3.85714286 L9.87428571,11.3554286 Z M7.71428571,13.7005714 C7.71428571,13.3714269 7.83514165,13.0885726 8.07685714,12.852 C8.31857264,12.6154274 8.60914116,12.4971429 8.94857143,12.4971429 C9.27771593,12.4971429 9.56571305,12.6102846 9.81257143,12.8365714 C10.0594298,13.0628583 10.1828571,13.3405698 10.1828571,13.6697143 C10.1828571,13.9988588 10.0620012,14.2817131 9.82028571,14.5182857 C9.57857022,14.7548583 9.2880017,14.8731429 8.94857143,14.8731429 C8.78399918,14.8731429 8.6271436,14.842286 8.478,14.7805714 C8.3288564,14.7188568 8.19771485,14.6365719 8.08457143,14.5337143 C7.97142801,14.4308566 7.88142891,14.3074293 7.81457143,14.1634286 C7.74771395,14.0194279 7.71428571,13.8651437 7.71428571,13.7005714 Z" id="!" fill="#FFFFFF" fill-rule="nonzero"></path>
            </g>
        </g>
    </g>
</svg>
